!!!OTL: Nachtigall als Warnerin Dort oben vor meines Vaters Haus,
!!!ARE: Europa, Mitteleuropa, Deutschland (BRD), Hessen, Nassau
!!!YOR: 6, S. 234
!!    ????
!!!SCT: Q0137G
!!!YEM: Copyright 1995, estate of Helmut Schaffrath.
**kern
*ICvox
*Ivox
!! Irregular meter.
*MX
*k[]
*C:
{4g
=1
4.cc
8cc
4cc
=2
2g
4g
=3
2a
4a
=4
2g}
{4g
=5
2g
4cc
=6
2b
4dd
=7
4dd
2cc}
{4g
=8
2ee
4ee
=9
4ee
4dd
4cc
=10
2gg
4ff
=11
2.ff}
{4g
=12
2gg
4gg
=13
2gg
4ff
=14
4ff
2ee}
==
!!!AGN: Ballade, Allegorie; lyrisch (?)
!!!ONB: ESAC (Essen Associative Code) Database: BALLADE
!!!AMT: irregular
!!!AIN: vox
!!!EED: Helmut Schaffrath
!!!EEV: 1.0
*-
